static/images/test__one.svg

<svg width="1924" height="674" fill="none" xmlns="http://www.w3.org/2000/svg"><path d="M.614 433.537V334.07c30.992-12.452 29.287-18.631 62.683-18.178a252.442 252.442 0 0 1 97.012 20.816l1.644.707a252.445 252.445 0 0 1 135.389 142.012 104.004 104.004 0 0 0 55.82 58.544l.675.291a103.972 103.972 0 0 0 80.201 1.07 105.404 105.404 0 0 0 59.375-134.16l-29.817-79.538A200.063 200.063 0 0 1 577.434 66.622a200.036 200.036 0 0 1 258.993 113.83c33.937 88.57 78.223 204.06 114.696 299.138a139.16 139.16 0 0 0 178.297 80.233l4.7-1.741a144.668 144.668 0 0 0 49.1-30.373 144.735 144.735 0 0 0 33.3-47.157 143.062 143.062 0 0 0 1.99-111.803l-35.28-88.403a201.916 201.916 0 0 1-14.4-77.526 202.25 202.25 0 0 1 16.39-77.129 201.944 201.944 0 0 1 44.68-64.974 201.948 201.948 0 0 1 66.15-42.915l7.81-3.095A202.129 202.129 0 0 1 1381.48.016c26.59.257 52.87 5.759 77.32 16.19l.68.29a198.711 198.711 0 0 1 64.49 44.284 198.735 198.735 0 0 1 42.39 65.744l2.14 4.895a152.988 152.988 0 0 0 82.22 84.578 152.997 152.997 0 0 0 117.85 1.608l155.34-59.926v102.772l-116.43 55.122a257.657 257.657 0 0 1-99.53 18.539 257.738 257.738 0 0 1-99-21.234 257.889 257.889 0 0 1-83.5-57.279 257.81 257.81 0 0 1-54.99-85.026l-1.96-5.169a94.252 94.252 0 0 0-20.09-31.142 94.127 94.127 0 0 0-30.54-20.981l-.34-.146a97.295 97.295 0 0 0-74.64-.544l-7.8 3.182a96.606 96.606 0 0 0-31.65 20.505 96.599 96.599 0 0 0-21.38 31.063 96.707 96.707 0 0 0-7.85 36.883 96.623 96.623 0 0 0 6.87 37.078l35.3 88.326a250.132 250.132 0 0 1-3.79 194.127 250.084 250.084 0 0 1-57.32 80.766 250.154 250.154 0 0 1-84.18 52.189l-4.67 1.751a244.186 244.186 0 0 1-313.624-141.096L738.077 218.218a94.669 94.669 0 0 0-19.884-31.129 94.673 94.673 0 0 0-66.355-29.097 94.668 94.668 0 0 0-67.496 26.349 94.68 94.68 0 0 0-22.64 102.729l.388 1.02 30.025 80.109a210.241 210.241 0 0 1-51.806 225.905 210.23 210.23 0 0 1-228.105 40.987l-1.373-.591A208.776 208.776 0 0 1 198.9 517.098a147.808 147.808 0 0 0-79.279-83.154l-.945-.407a147.68 147.68 0 0 0-56.802-12.196c-19.554-.264-43.116 4.897-61.26 12.196Z" fill="#47A0ED"/></svg>

<svg width="1924" height="674" viewBox="0 0 1924 674" fill="none" xmlns="http://www.w3.org/2000/svg">
<path d="M0.614046 433.537L0.61401 380.451L0.613933 334.07C31.6058 321.618 29.9014 315.439 63.2974 315.892C96.6933 316.345 129.667 323.42 160.309 336.708L161.953 337.415C192.856 350.851 220.756 370.338 244.008 394.728C267.261 419.118 285.395 447.917 297.342 479.427C302.264 492.419 309.74 504.294 319.327 514.349C328.914 524.404 340.419 532.436 353.162 537.971L353.837 538.262C366.468 543.742 380.062 546.659 393.83 546.842C407.597 547.026 421.264 544.473 434.038 539.332C459.422 529.063 479.814 509.318 490.896 484.277C501.979 459.237 502.881 430.866 493.413 405.172L463.596 325.634C444.347 276.192 445.526 221.127 466.875 172.553C488.224 123.979 527.993 85.8742 577.434 66.622C626.874 47.3698 681.936 48.5468 730.507 69.8941C779.078 91.2415 817.178 131.011 836.427 180.452C870.364 269.022 914.65 384.512 951.123 479.59C964.325 513.721 990.438 541.278 1023.81 556.294C1057.18 571.311 1095.12 572.579 1129.42 559.823L1134.12 558.082C1152.36 551.36 1169.06 541.03 1183.22 527.709C1197.37 514.388 1208.7 498.35 1216.52 480.552C1224.34 463.004 1228.55 444.061 1228.89 424.853C1229.23 405.645 1225.7 386.564 1218.51 368.749L1183.23 280.346C1173.38 255.701 1168.49 229.357 1168.83 202.82C1169.18 176.284 1174.75 150.074 1185.22 125.691C1195.7 101.308 1210.88 79.2293 1229.9 60.7169C1248.92 42.2045 1271.39 27.6215 1296.05 17.802L1303.86 14.7069C1328.52 4.75113 1354.9 -0.241224 1381.48 0.0158949C1408.07 0.273014 1434.35 5.77458 1458.8 16.2053L1459.48 16.4959C1483.7 26.8387 1505.62 41.8917 1523.97 60.7804C1542.31 79.6691 1556.73 102.017 1566.36 126.524L1568.5 131.419C1575.93 150.256 1587.02 167.431 1601.13 181.949C1615.24 196.467 1632.1 208.04 1650.72 215.997C1669.28 224.044 1689.25 228.329 1709.48 228.605C1729.71 228.881 1749.8 225.142 1768.57 217.605L1923.91 157.679L1923.91 260.451L1807.48 315.573C1775.86 328.273 1742.03 334.575 1707.95 334.112C1673.87 333.649 1640.22 326.432 1608.95 312.878C1577.61 299.494 1549.23 280.026 1525.45 255.599C1501.68 231.172 1482.99 202.272 1470.46 170.573L1468.5 165.404C1463.93 153.795 1457.1 143.209 1448.41 134.262C1439.72 125.314 1429.34 118.182 1417.87 113.281L1417.53 113.135C1405.74 108.136 1393.07 105.514 1380.26 105.42C1367.46 105.327 1354.75 107.764 1342.89 112.591L1335.09 115.773C1323.3 120.461 1312.54 127.429 1303.44 136.278C1294.34 145.126 1287.08 155.682 1282.06 167.341C1277.05 179 1274.38 191.533 1274.21 204.224C1274.04 216.915 1276.38 229.515 1281.08 241.302L1316.38 329.628C1328.72 360.605 1334.74 393.736 1334.09 427.073C1333.44 460.41 1326.13 493.282 1312.59 523.755C1299.06 554.228 1279.57 581.688 1255.27 604.521C1230.97 627.353 1202.35 645.097 1171.09 656.71L1166.42 658.461C1106.1 681.062 1039.3 678.915 980.555 652.488C921.815 626.061 875.895 577.495 852.796 517.365L738.077 218.218C733.557 206.637 726.801 196.059 718.193 187.089C709.585 178.12 699.295 170.934 687.909 165.941C676.524 160.949 664.267 158.248 651.838 157.992C639.409 157.737 627.051 159.933 615.47 164.454C603.889 168.974 593.312 175.732 584.342 184.341C575.372 192.95 568.186 203.241 563.193 214.627C558.2 226.013 555.499 238.27 555.243 250.7C554.987 263.13 557.182 275.488 561.702 287.07L562.09 288.09L592.115 368.199C606.567 406.786 609.362 448.771 600.151 488.934C590.941 529.097 570.131 565.669 540.309 594.104C510.487 622.539 472.968 641.583 432.413 648.87C391.858 656.158 350.057 651.366 312.204 635.091L310.831 634.5C285.285 623.389 262.221 607.278 242.997 587.115C223.774 566.952 208.78 543.146 198.9 517.098C191.905 498.647 181.287 481.784 167.671 467.502C154.055 453.221 137.717 441.81 119.621 433.944L118.676 433.537C100.736 425.751 81.4291 421.605 61.8744 421.341C42.3197 421.077 18.7577 426.238 0.614046 433.537Z" fill="#47A0ED"/>
</svg>
